X:74
T:Shoot The Buffalo Schottische
M:4/4
L:1/8
S:Wedgwood Alehouse jam, 2014/11/11
Z:abc-transcription Josh Larios <hades@elsewhere.org>, 2014.12.07
K:G
DG |: "G"B2 B2 B2 cB | "D"AF AB A2 Bc | "C"dc Bc dB GB |1 "D"AF DF "G"G2 DG :|2 "D"AF DF "G"G2 ||
gf |: "C"e2 c2 c2 ge | "G"d2 B2 B2 Bc | "D"dc Bc dB GB |1 AF DF "G"G2 gf :|2 AF DF "G"G2 |]

